!!!!SEGMENT: pl-wn--mus-57--001-002_sowinski-wojciech--messe-breve-gloria.krn
!!!cenid: 18xx:3573
!!!COM: Sowiński, Wojciech
!!!COM-rismID: pe30008543
!!!CDT: ~1803-1880/03/05
!!!CNT:
!!!OPR: Messe Breve
!!!OTL: Gloria
!!!OMV: 002
!!!PDT: 1872
!!!AGN:
!!!SMS-siglum: PL-Wn
!!!SMS-shelfmark: Mus.57
!!!SMS-shelfwork: 001-002 M
!!!SMS-variant:
!!!SMS-altvar:
!!!NIFC-rismSourceID:
!!!NIFC-rismChildID:
!!!NIFC-islandoraID: none
!!!URL-pdf-islandora:
!!!URL-scan: https://polona2.pl/item/messe-breve-a-deux-voix-egales-avec-accompagnement-d-orgue-composee-pour-l-eglise-de,NDI0MDY1OTQ/1 @EN{Scan on Polona} @PL{Skany w portalu Polona}
!!!IIIF: https://polona2.pl/iiif/item/NDI0MDY1OTQ/manifest.json
!!!ONB-nifc: UWAGA: części Mszy: 1. Kyrie, 2. Gloria, 3. Credo, 4. Sanctus, 5. Benedictus, 6. Agnus Dei
!!!AIN: 1 barit 1 bass 2 organ 2 physh 1 tenor
!!!key: E-
**kern	**kern	**dynam	**kern	**text	**text	**dynam	**kern	**text	**dynam
*part4	*part3	*part3	*part2	*part2	*part2	*part2	*part1	*part1	*part1
*staff4	*staff3	*	*staff2	*staff2	*staff2	*	*staff1	*staff1	*
*I"Orgue ou Harmonium	*I"Orgue ou Harmonium	*	*I"Basse	*	*	*	*I"Tenor ou Bariton	*	*
*I'Orgue	*I'Orgue	*	*I'B.	*	*	*	*I'T.	*	*
*Iorgan|Iphysh	*Iorgan|Iphysh	*	*Ibass	*	*	*	*Itenor|Ibarit	*	*
*ICklav	*ICklav	*	*ICvox	*	*	*	*ICvox	*	*
*IGacmp	*IGacmp	*	*	*	*	*	*	*	*
*clefF4	*clefG2	*	*clefF4	*	*	*	*clefG2	*	*
*k[b-e-a-]	*k[b-e-a-]	*	*k[b-e-a-]	*	*	*	*k[b-e-a-]	*	*
*E-:	*E-:	*	*E-:	*	*	*	*E-:	*	*
*M4/4	*M4/4	*	*M4/4	*	*	*	*M4/4	*	*
*met(c)	*met(c)	*	*met(c)	*	*	*	*met(c)	*	*
=1	=1	=1	=1	=1	=1	=1	=1	=1	=1
*xywh-6:5,34,5260,1600	*xywh-6:5,34,5260,1600	*	*	*xywh-6:5,34,5260,1600	*	*	*xywh-6:5,34,5260,1600	*	*
*all\right	*all\right	*	*all\right	*	*	*	*all\right	*	*
!	!LO:TX:t=P:problem=pierwsze trzy takty wpisane na pięcioliniach głosów wokalnych	!	!LO:TX:a:t=P:problem=przez większą część partii tekst zapisany falką oznaczającą powtórzenie tekstu tenora i jednocześnie dopisany inną ręką	!	!	!	!LO:TX:a:i:t=Allegro deciso	!	!
4.B-\	4.b-\	f	1r	.	.	.	1r	.	.
8B-\	8b-\	.	.	.	.	.	.	.	.
8B-\L	8b-\L	.	.	.	.	.	.	.	.
8c\	8cc\	.	.	.	.	.	.	.	.
8B-\	8b-\	.	.	.	.	.	.	.	.
8An\J	8an\J	.	.	.	.	.	.	.	.
=2	=2	=2	=2	=2	=2	=2	=2	=2	=2
8B-\L	8b-\L	.	1r	.	.	.	1r	.	.
8A-X\	8a-X\	.	.	.	.	.	.	.	.
8F\	8f\	.	.	.	.	.	.	.	.
8G\J	8g\J	.	.	.	.	.	.	.	.
8A-\L	8a-/L	.	.	.	.	.	.	.	.
8F\	8f/	.	.	.	.	.	.	.	.
8C\	8c/	.	.	.	.	.	.	.	.
8D\J	8d/J	.	.	.	.	.	.	.	.
=3	=3	=3	=3	=3	=3	=3	=3	=3	=3
8G\L	8g/L	.	1r	.	.	.	1r	.	.
8F\	8f/	.	.	.	.	.	.	.	.
8D\	8d/	.	.	.	.	.	.	.	.
8BB-\J	8B-/J	.	.	.	.	.	.	.	.
*2\right	*	*	*	*	*	*	*	*	*
2BB-\	2b- 2B-/	sf	.	.	.	.	.	.	.
=4	=4	=4	=4	=4	=4	=4	=4	=4	=4
*^	*^	*	*	*	*	*	*	*	*
*xywh-6:126,1427,5131,1211	*xywh-6:126,1427,5131,1211	*xywh-6:126,1427,5131,1211	*xywh-6:126,1427,5131,1211	*	*	*	*	*	*	*	*
!	!	!	!	!	!LO:TX:a:rj:t=Chant	!	!	!	!LO:TX:a:rj:t=Chant	!	!
8.E-L 8.EE-\	2ryy	8.e-/L	2ryy	f	8.E-\	Glo-	.	.	8.e-/	Glo-	.
16GJk 16GG\	.	16g/Jk	.	.	16G\	-ri-	.	.	16g/	-ri-	.
4B- 4BB-\	.	4b-^^\	.	sf	4B-\	-a	.	.	4b-\	-a	.
*	*	*	*2\right	*	*	*	*	*	*	*	*
8F#X/L	2E-\	8an/L	2e-\	.	8F#X\	in	.	.	8an\	in	.
8G/	.	8b-/	.	.	8G\	ex-	.	.	8b-\	ex-	.
8A-/	.	8cc/	.	.	8A-\	-cel-	.	.	8cc\	-cel-	.
8G/J	.	8b-/J	.	.	8G\	-sis	.	.	8b-\	-sis	.
*v	*v	*	*	*	*	*	*	*	*	*	*
*	*v	*v	*	*	*	*	*	*	*	*
=5	=5	=5	=5	=5	=5	=5	=5	=5	=5
*	*	*	*2\right	*	*	*	*2\right	*	*
!	!	!	!	!	!	!LO:HP:a	!	!	!LO:HP:a
(2G (>2E-\	(2b- 2e-\	sf >	2G\	De-	.	>	2b-\	De-	>
4E- 4EE-\))	4g\)	]	4E-\	-o	.	]	4g\	-o	]
8.E-^^\L	8.e-^^/L	.	8.E-\	glo-	.	.	8.e-/	Glo-	.
16E-\Jk	16e-/Jk	.	16E-\	-ri-	.	.	16e-/	-ri-	.
!!LO:LB:g=original
=6	=6	=6	=6	=6	=6	=6	=6	=6	=6
*xywh-6:49,3746,5148,1142	*xywh-6:49,3746,5148,1142	*	*xywh-6:118,3157,5131,726	*	*	*	*xywh-6:109,2543,5053,700	*	*
4A- 4AA-^^\	4cc 4a- 4e-^^\	.	(4A-^\	-a	.	.	(4cc^\	-a	.
4E- 4EE-^^\	4b- 4g 4e-^^\	.	4G^\)	.	.	.	4b-^\)	.	.
4r	4r	.	4r	.	.	.	4r	.	.
8.E-^^\L	8.e-^^/L	.	8.E-^\	in	.	.	8.e-^>/	in	.
16E-\Jk	16e-/Jk	.	16E-\	ex-	.	.	16e-/	ex-	.
=7	=7	=7	=7	=7	=7	=7	=7	=7	=7
4A- 4AA-^^\	4cc 4a- 4e-^^\	.	4A-^\	-cel-	.	.	4cc^\	-cel-	.
4E- 4EE-^^\	4b- 4g 4e-^^\	.	4E-^\	-sis	.	.	4b-^\	-sis	.
8.r	8.r	.	4r	.	.	.	4r	.	.
16A-\KL	16b-\	<	.	.	.	.	.	.	.
8.G\	8.g/L	.	8.G\	in	.	.	8.e-/	in	.
16E-\Jk	16e-/Jk	[[	16E-\	ex-	.	.	16g/	ex-	.
=8	=8	=8	=8	=8	=8	=8	=8	=8	=8
!	!	!	!	!	!	!	!	!	!LO:DY:a
8.BB-\L	8.B-/L	.	(8.BB-\L	-cel-	.	.	2.b-\	-cel-	f
16E-\Jk	16e-/Jk	.	16E-\Jk)	.	.	.	.	.	.
!	!	!	!	!	!	!LO:DY:a	!	!	!
2G 2BB-\	2g/	sf	2G\	.	.	sf	.	.	.
4F 4BB-^^\	4f 4d^^/	.	4F^^\	-sis	.	.	4a-^^/	-sis	.
=9	=9	=9	=9	=9	=9	=9	=9	=9	=9
4E-^^\	4e-^^/	.	4E-^^\	De-	.	.	4g/	De-	.
.	32qqg/LLL	.	.	.	.	.	.	.	.
.	32qqb-/JJJ	.	.	.	.	.	.	.	.
4E- 4EE-^^\	4ee-^^\	.	4E-\	-o	.	.	4g/	-o	.
4r	4r	.	4r	.	.	.	2r	.	.
!	!	!	!	!	!	!LO:DY:a	!	!	!
4G 4E-\	8.e-/L	p	8.E-\	Et	.	mf	.	.	.
.	16e-/Jk	.	16E-\	in	.	.	.	.	.
=10	=10	=10	=10	=10	=10	=10	=10	=10	=10
*^	*^	*	*	*	*	*	*	*	*
*	*	*	*^	*	*	*	*	*	*	*	*
2A- 2D\	2ryy	(4f/	2B-\	2ryy	.	4.F^^\	ter-	.	.	1r	.	.
.	.	[4b-/	.	.	.	.	.	.	.	.	.	.
.	.	.	.	.	.	8F\	-ra	.	.	.	.	.
2A-/	4D\	2b-/_	2B-\	4f/	.	(4F\	pax	.	.	.	.	.
.	4BB-\	.	.	8g/L	.	8G\)	.	.	.	.	.	.
.	.	.	.	8f/J)	.	8F\	ho-	.	.	.	.	.
!!LO:LB:g=original
=11	=11	=11	=11	=11	=11	=11	=11	=11	=11	=11	=11	=11
*xywh-6:31,5935,5217,1514	*xywh-6:31,5935,5217,1514	*xywh-6:31,5935,5217,1514	*xywh-6:31,5935,5217,1514	*xywh-6:31,5935,5217,1514	*	*xywh-6:118,5468,5070,562	*	*	*	*xywh-6:83,4810,5122,718	*	*
4A-/	4BB-\	2b-/]	8.f\L	8.d/L	.	8.F^^\	-mi-	.	.	2r	.	.
.	.	.	16e-\Jk	16e-/Jk	.	16E-\	-ni-	.	.	.	.	.
2G/	2E-\	.	(>8e-/L	4ryy	.	4E-\	-bus	.	.	.	.	.
.	.	.	8g/J	.	.	.	.	.	.	.	.	.
.	.	2ryy	4b-/)	2ryy	.	2r	.	.	.	4r	.	.
!	!	!	!	!	!	!	!	!	!	!	!	!LO:DY:a
4r	4ryy	.	8g\L	.	.	.	.	.	.	8.e-/	bo-	mf
.	.	.	8e-\J	.	.	.	.	.	.	.	.	.
.	.	.	.	.	.	.	.	.	.	16e-/	-nae	.
*v	*v	*	*	*	*	*	*	*	*	*	*	*
*	*v	*v	*v	*	*	*	*	*	*	*	*
=12	=12	=12	=12	=12	=12	=12	=12	=12	=12
2A- 2D\	4f/	.	1r	.	.	.	4.f/	bo-	.
.	[4a- [>4f/	.	.	.	.	.	.	.	.
.	.	.	.	.	.	.	8f/	-nae	.
[2BB-\	(>8a-]L 8f/]	<	.	.	.	.	4a-^>/	vo-	.
.	8cc 8a-/	[	.	.	.	.	.	.	.
.	8b- 8g/	>	.	.	.	.	8g/L	-lun-	.
.	8a-J 8f/)	]]	.	.	.	.	8f/J	.	.
=13	=13	=13	=13	=13	=13	=13	=13	=13	=13
8BB-\L]	(2a- (>2f/	.	1ryy	.	.	.	2f/	-ta-	.
8BB-\	.	.	.	.	.	.	.	.	.
8C\	.	.	.	.	.	.	.	.	.
8D\J	.	.	.	.	.	.	.	.	.
4E-\	4g 4e-/))	.	.	.	.	.	4e-/	-tis	.
4r	(>8e-/L	.	.	.	.	.	(>8e-/L	Lau-	.
.	8d/J)	.	.	.	.	.	8d/J)	.	.
=14	=14	=14	=14	=14	=14	=14	=14	=14	=14
*	*^	*	*	*	*	*	*	*	*
2.A- 2.AA-\	4c/	[2c\	mf	1ryy	.	.	.	4c/	-da-	.
.	8f/L	.	.	.	.	.	.	(>8f/L	-mus	.
.	8e-/J	.	.	.	.	.	.	8e-/J)	.	.
.	4d/	4c\]	.	.	.	.	.	4d/	te	.
!	!	!	!LO:HP:t=cres	!	!	!	!	!	!	!
[4G 4GG\	8g/L	8Bn\L	<	.	.	.	.	8g/	be-	.
.	8f/J	[>8d\J	.	.	.	.	.	8f/	-ne-	.
=15	=15	=15	=15	=15	=15	=15	=15	=15	=15	=15
4G] 4C\	4e-/	8d\L]	.	1ryy	.	.	.	4e-/	-di-	.
.	.	8c\J	.	.	.	.	.	.	.	.
4c 4C\	8a-/L	2e-\	.	.	.	.	.	(>8a-/L	-ci-	.
.	8g/J	.	.	.	.	.	.	8g/J)	.	.
4d 4D\	4f/	.	.	.	.	.	.	4f/	-mus	.
4B- 4BB-\	8b-/L	4d\	.	.	.	.	.	(>8b-/L	te	.
.	8a-/J	.	.	.	.	.	.	8a-/J)	.	.
*	*v	*v	*	*	*	*	*	*	*	*
!!LO:PB:g=original
=16	=16	=16	=16	=16	=16	=16	=16	=16	=16
*xywh-7:-4,1453,5303,1193	*xywh-7:-4,1453,5303,1193	*	*xywh-7:30,848,5208,657	*	*	*	*xywh-7:39,52,5260,891	*	*
!	!	!	!	!	!	!LO:HP:a	!	!	!LO:HP:a
2E-\	(4g 4e-\	.	4E-\	a-	.	<	4g/	a-	<
.	4a- 4f\)	.	4G\	-do-	.	.	4b-\	-do-	.
!	!	!	!	!	!	!LO:DY:a	!	!	!LO:DY:a
4.A- 4.AA-\	(8ccL 8a-\	sf	(8A-\L	-ra-	.	[ f	(8cc\L	-ra-	[ f
.	8b- 8g\	.	8G\	.	.	.	8b-\	.	.
.	8a- 8f\	.	8F\J)	.	.	.	8a-\J)	.	.
8An 8AAn\	8gJ 8e-\)	.	8E-\	-mus	.	.	8g\	-mus	.
=17	=17	=17	=17	=17	=17	=17	=17	=17	=17
4B- 4BB-\	8fL 8d/	.	2D^^\	te	.	.	2f^^/	te.	.
.	16B-/L	f	.	.	.	.	.	.	.
.	16c/JJ	.	.	.	.	.	.	.	.
8B- 8BB-\	16d/LL	.	.	.	.	.	.	.	.
.	16e-/	.	.	.	.	.	.	.	.
8r	16f/	.	.	.	.	.	.	.	.
.	16g/JJ	.	.	.	.	.	.	.	.
8F 8FF\	16a-\LL	.	2r	.	.	.	2r	.	.
.	16b-\	.	.	.	.	.	.	.	.
8r	16cc\	.	.	.	.	.	.	.	.
.	16dd\JJ	.	.	.	.	.	.	.	.
8D 8DD\	16ee-\LL	.	.	.	.	.	.	.	.
.	16ff\	.	.	.	.	.	.	.	.
8r	16gg\	.	.	.	.	.	.	.	.
.	16aa-\JJ	.	.	.	.	.	.	.	.
=18	=18	=18	=18	=18	=18	=18	=18	=18	=18
*^	*	*	*	*	*	*	*	*	*
*	*^	*	*	*	*	*	*	*	*	*
!	!	!	!	!	!	!	!	!LO:DY:a	!	!	!LO:DY:a
4BB-/	2BB-\	4BBB-\	8bb-\	f	4BB-/	glo-	.	f	4b-\	Glo-	f
.	.	.	4bb- 4dd 4b-\	.	.	.	.	.	.	.	.
[2.B-/	.	4ryy	.	.	8BB-/	-ri-	.	.	8b-\	-ri-	.
.	.	.	4bb- 4ff 4b-\	.	8BB-/	-fi-	.	.	8b-\	-fi-	.
.	4C\	4C/	.	.	4C/	-ca-	.	.	4an\	-ca-	.
.	.	.	4aan 4ff 4b-\	.	.	.	.	.	.	.	.
.	4D\	4D/	.	.	4D/	-mus	.	.	4a-X\	-mus	.
.	.	.	8aa-X 8ff 8b-\	.	.	.	.	.	.	.	.
*	*v	*v	*	*	*	*	*	*	*	*	*
=19	=19	=19	=19	=19	=19	=19	=19	=19	=19	=19
4.B-/]	[2E-\	4.gg 4.ee- 4.b-\	.	2E-^^\	te	.	.	2g^^/	te.	.
8G/	.	(8b-\	<	.	.	.	.	.	.	.
8F#X/L	4E-\]	8an\L	.	2r	.	.	.	2r	.	.
8G/	.	8b-\	.	.	.	.	.	.	.	.
8A-/	4ryy	8cc\	[	.	.	.	.	.	.	.
8G/J	.	8b-\J)	>	.	.	.	.	.	.	.
=20	=20	=20	=20	=20	=20	=20	=20	=20	=20	=20
!	!	!	!	!	!	!	!LO:DY:a:rj	!	!	!LO:DY:a:rj
[2G/	4GG\	8gg 8bn 8g\	]	4G^\	glo-	.	p	4bn^\	Glo-	p
.	.	4gg 4b 4g\	.	.	.	.	.	.	.	.
.	4GG^>\	.	.	8G\	-ri-	.	.	8b\	-ri-	.
!	!	!	!	!	!	!	!LO:HP:a	!	!	!LO:HP:a
.	.	4gg 4b 4g\	.	8G\	-fi-	.	<	8b\	-fi-	<
2G/]	4AA-^>\	.	.	4F#X\	-ca-	.	.	4an\	-ca-	.
.	.	4ff#X 4cc 4a-\	.	.	.	.	.	.	.	.
.	4BB-^>\	.	.	4Fn\	-mus	.	[[	4b\	-mus	[[
.	.	8ffn 8dd 8g\	.	.	.	.	.	.	.	.
*v	*v	*	*	*	*	*	*	*	*	*
!!LO:LB:g=original
=21	=21	=21	=21	=21	=21	=21	=21	=21	=21
*xywh-7:13,3712,5260,1090	*xywh-7:13,3712,5260,1090	*	*xywh-7:-4,3167,5251,640	*	*	*	*xywh-7:4,2552,5286,666	*	*
2G 2C\	(16ee-\LL	<	2E-^^\	te	.	.	2cc^^\	te	.
.	16cc\	.	.	.	.	.	.	.	.
.	16dd\	.	.	.	.	.	.	.	.
.	16ee-\JJ	.	.	.	.	.	.	.	.
.	16ff\LL	.	.	.	.	.	.	.	.
.	16gg\	.	.	.	.	.	.	.	.
.	16aan\	.	.	.	.	.	.	.	.
.	16bbn\JJ	.	.	.	.	.	.	.	.
2r	16ccc\LL	[	2r	.	.	.	2r	.	.
.	16bb-X\	>	.	.	.	.	.	.	.
.	16aa-X\	.	.	.	.	.	.	.	.
.	16gg\	.	.	.	.	.	.	.	.
.	16ff\	.	.	.	.	.	.	.	.
.	16ee-\	.	.	.	.	.	.	.	.
.	16dd\	.	.	.	.	.	.	.	.
.	16cc\JJ)	]]	.	.	.	.	.	.	.
=22	=22	=22	=22	=22	=22	=22	=22	=22	=22
!	!	!	!	!	!	!LO:DY:a:rj	!	!	!LO:DY:a
4GG\	8dd-X 8b- 8e-\	p	4.E-\	Gra-	.	p	4.dd-X\	Gra-	p
.	4dd- 4b- 4e-\	.	.	.	.	.	.	.	.
4BB-\	.	.	.	.	.	.	.	.	.
.	4dd- 4b- 4e-\	.	8G\	-ti-	.	.	8dd-\	-ti-	.
4E-\	.	.	4B-\	-as	.	.	4dd-\	-as	.
.	4dd- 4b- 4e-\	.	.	.	.	.	.	.	.
4G\	.	.	8G\	a-	.	.	8dd-\	a-	.
.	8dd- 8b- 8e-\	.	8E-\	-gi-	.	.	8dd-\	-gi-	.
=23	=23	=23	=23	=23	=23	=23	=23	=23	=23
4AA-\	8cc 8a-X 8e-X\	.	2A-\	-mus	.	.	2cc\	-mus	.
.	4cc 4a- 4e-\	.	.	.	.	.	.	.	.
4C\	.	.	.	.	.	.	.	.	.
.	4cc 4a- 4e-\	.	.	.	.	.	.	.	.
4E-\	.	.	4G\	ti-	.	.	4cc\	ti-	.
.	4cc 4a- 4e-\	.	.	.	.	.	.	.	.
4A-\	.	.	4A-\	-bi	.	.	4cc\	-bi	.
.	8cc 8a- 8e-\	.	.	.	.	.	.	.	.
=24	=24	=24	=24	=24	=24	=24	=24	=24	=24
4GG\	8een 8cc 8b- 8en\	.	4.C\	pro-	.	.	4.b-^^\	pro-	.
.	4ee 4cc 4b-^<\	.	.	.	.	.	.	.	.
4C\	.	.	.	.	.	.	.	.	.
.	4ee 4cc 4b-\	.	8En\	-pter	.	.	8b-\	-pter	.
4En\	.	.	4G\	ma-	.	.	4b-\	mag-	.
.	4ee 4cc 4b-\	.	.	.	.	.	.	.	.
4G\	.	.	4E\	-gnam	.	.	4b-\	-nam	.
.	8ee 8cc 8b-\	.	.	.	.	.	.	.	.
=25	=25	=25	=25	=25	=25	=25	=25	=25	=25
4FF/	8ff 8cc 8a-\	.	4F\	glo-	.	.	4a-\	glo-	.
.	4ff 4cc 4a-\	.	.	.	.	.	.	.	.
4AA-/	.	.	8En\	-ri-	.	.	8a-\	-ri-	.
.	4cc 4a-\	.	8F\	-am	.	.	8a-\	-am	.
4C/	.	.	4F\	tu-	.	.	4a-\	tu-	.
.	4a- 4f\	.	.	.	.	.	.	.	.
4F\	.	.	4F\	-am	.	.	4a-\	-am	.
.	8f\	.	.	.	.	.	.	.	.
!!LO:LB:g=original
=26	=26	=26	=26	=26	=26	=26	=26	=26	=26
*xywh-7:4,5849,5294,1557	*xywh-7:4,5849,5294,1557	*	*xywh-7:30,5381,5251,692	*	*	*	*xywh-7:22,4758,5216,744	*	*
(4.F\	8r	p	4.F^\	Do-	.	.	4.a-\	Do-	.
.	8f\L	.	.	.	.	.	.	.	.
.	8a-\	.	.	.	.	.	.	.	.
8E-\	8cc-X\J	.	8E-\	-mi-	.	.	8a-\	-mi-	.
4D\	8ff\L	.	4D\	-ne	.	.	4a-\	-ne	.
.	8f\	.	.	.	.	.	.	.	.
4C-X^^\)	(8ff 8a-\	.	4r	.	.	.	4r	.	.
.	8ee-\J	.	.	.	.	.	.	.	.
=27	=27	=27	=27	=27	=27	=27	=27	=27	=27
4.F 4.BB-\	4dd\)	.	(4.F^\	De-	.	.	2a-^^\	De-	.
.	[4f^^\	.	.	.	.	.	.	.	.
8C-X\	.	.	8E-\)	.	.	.	.	.	.
4BB-\	(8f\L]	.	4D\	-us	.	.	4a-\	-us	.
.	8f\	.	.	.	.	.	.	.	.
8.D\L	8a-\	>	4r	.	.	.	4r	.	.
.	8g-X\J	]]	.	.	.	.	.	.	.
16E-\Jk	.	.	.	.	.	.	.	.	.
=28	=28	=28	=28	=28	=28	=28	=28	=28	=28
4.F 4.BB-\	(8f\L)	.	(4.F^\	Rex	.	.	2.a-^^\	Rex	.
.	8a-\	.	.	.	.	.	.	.	.
.	8dd\	.	.	.	.	.	.	.	.
8C-X\	8ee-\J	.	8E-\	.	.	.	.	.	.
4BB-\	8ff\L)	.	4D\)	.	.	.	.	.	.
.	8f\	.	.	.	.	.	.	.	.
8D\L	(8ff 8a-\	.	4F\	coe-	.	.	4a-\	coe-	.
8E-\J	8ee-J 8g-X\	.	.	.	.	.	.	.	.
=29	=29	=29	=29	=29	=29	=29	=29	=29	=29
4.F 4.BB-\	8ddL 8f\)	.	(4.F^\	-les-	.	.	2a-^^\	-les-	.
.	8f\	.	.	.	.	.	.	.	.
.	(8ff 8a-\	.	.	.	.	.	.	.	.
8D\L	8ee-J 8g-X\	.	8E-\)	.	.	.	.	.	.
8E-\J	8dd 8f\)	.	4D\	-tis	.	.	4a-\	-tis	.
4F 4BB-\	4dd 4f\	.	.	.	.	.	.	.	.
.	.	.	4r	.	.	.	4r	.	.
8r	8ff 8dd 8f\	.	.	.	.	.	.	.	.
=30	=30	=30	=30	=30	=30	=30	=30	=30	=30
*^	*	*	*	*	*	*	*	*	*
!	!	!	!	!	!	!	!	!	!	!LO:HP:a
2.F/	2D\	(4aa- 4a-\	<	2F\	De-	.	.	4a-\	De-	<
.	.	4aan 4an\	.	.	.	.	.	4an\	-us	[
!	!	!	!	!	!	!	!	!	!	!LO:HP:a
.	4BB-\	4bb- [>4b-\	[ >	2D\	-us	.	.	4b-\	Pa-	>
4D/	4D\	4ff 4b-\])	]]	.	.	.	.	4f\	-ter	]
*v	*v	*	*	*	*	*	*	*	*	*
=31	=31	=31	=31	=31	=31	=31	=31	=31	=31
!	!	!	!	!	!	!	!	!	!LO:HP:a
2E-\	4gg 4b-\	.	2E-\	Pa-	.	.	2g/	Pa-	<
.	8ee-\L	.	.	.	.	.	.	.	.
.	8dd\J	.	.	.	.	.	.	.	.
2A- 2AA-\	(8cc\L	.	2AA-/	-ter	.	.	(4cc\	-ter	[
.	8ff\	.	.	.	.	.	.	.	.
.	8gg\	.	.	.	.	.	4a-\)	.	.
.	8ff\J)	.	.	.	.	.	.	.	.
!!LO:PB:g=original
=32	=32	=32	=32	=32	=32	=32	=32	=32	=32
*xywh-8:103,1390,5253,1363	*xywh-8:103,1390,5253,1363	*	*xywh-8:112,804,5227,725	*	*	*	*xywh-8:138,61,5279,987	*	*
!	!	!	!	!	!	!LO:HP:a	!	!	!LO:HP:a
2B- 2BB-\	2ee- 2g\	sf	2BB-/	om-	.	>	2g/	o-	>
4.Bn 4.BBn^^\	4.dd 4.f^^\	.	4.BBn/	-ni-	.	.	4.f/	-mni	.
8c 8C\	8cc 8e-\	.	8C/	-po-	.	]	8e-/	po-	]
=33	=33	=33	=33	=33	=33	=33	=33	=33	=33
4c 4C\	8.cc 8.e-\	.	2C/	-tens	.	.	2e-/	-tens	.
.	(16e-/	<	.	.	.	.	.	.	.
4G 4GG\	16f/LL	.	.	.	.	.	.	.	.
.	16g/	.	.	.	.	.	.	.	.
.	16an/	.	.	.	.	.	.	.	.
.	16bn/JJ	.	.	.	.	.	.	.	.
4E- 4EE-\	16cc\LL	.	2r	.	.	.	2r	.	.
.	16dd\	.	.	.	.	.	.	.	.
.	16ee-\	.	.	.	.	.	.	.	.
.	16ff\JJ	.	.	.	.	.	.	.	.
4C 4CC\	16gg\LL	.	.	.	.	.	.	.	.
.	16aa-\	.	.	.	.	.	.	.	.
.	16bb-\	.	.	.	.	.	.	.	.
.	16ccc\JJ)	[	.	.	.	.	.	.	.
=34	=34	=34	=34	=34	=34	=34	=34	=34	=34
*	*^	*	*	*	*	*	*	*	*
2AAn 2AAAn/	2ccc 2gg-X 2ee- 2cc\	2ryy	ff	1r	.	.	.	1r	.	.
2A- 2AA\	4cc/	2f#X\	>	.	.	.	.	.	.	.
.	8dd/L	.	.	.	.	.	.	.	.	.
.	8ee-/J	.	]]	.	.	.	.	.	.	.
*	*v	*v	*	*	*	*	*	*	*	*
=35	=35	=35	=35	=35	=35	=35	=35	=35	=35
4B- 4BB-\	4ee- 4b- 4g\	.	1r	.	.	.	1r	.	.
4r	4r	.	.	.	.	.	.	.	.
4B- 4BB-\	4dd 4b- 4fn\	.	.	.	.	.	.	.	.
4r;	4r;	.	.	.	.	.	.	.	.
=36	=36	=36	=36	=36	=36	=36	=36	=36	=36
!	!	!	!	!	!	!LO:DY:a	!	!	!
4E- 4EE-\	4r	p	(4E-\	Do-	.	p	2r	.	.
4r	(8d/L	.	8F\)	.	.	.	.	.	.
.	8e-/J)	.	8E-\	-mi-	.	.	.	.	.
4BB- 4BBB-/	4r	.	2D\	-ne	.	.	(>8f/L	Do-	.
.	.	.	.	.	.	.	8a-/	.	.
4r	4b- 4d 4B-/	.	.	.	.	.	8cc/J)	.	.
.	.	.	.	.	.	.	8b-\	-mi-	.
!!LO:LB:g=original
=37	=37	=37	=37	=37	=37	=37	=37	=37	=37
*^	*	*	*	*	*	*	*	*	*
*xywh-8:103,3610,5262,1258	*xywh-8:103,3610,5262,1258	*xywh-8:103,3610,5262,1258	*	*xywh-8:103,3094,5139,821	*	*	*	*xywh-8:130,2483,5157,804	*	*
!	!	!	!	!	!	!	!	!	!LO:MO:mod=-ne	!
[2E- [>2EE-\	2ryy	8r	.	(4G\	Do-	.	.	4b-\	Do-	.
.	.	(>8b-L 8g/	>	.	.	.	.	.	.	.
.	.	8an 8f#X/	.	8F#X\)	.	.	.	8an\	Do-	.
.	.	8a-XJ 8fn/)	]	8Fn\	-mi-	.	.	8a-X\	-mi-	.
8E-] 8EE-\]	8ryy	4g 4e-/	.	4E-\	-ne	.	.	4g/	-ne	.
!	!	!	!LO:DY:rj	!	!	!	!	!	!	!
(8B-/L	8G\L	.	p	.	.	.	.	.	.	.
8An/	8F#X\	4r	.	4r	.	.	.	4r	.	.
8A-X/J)	8Fn\J	.	.	.	.	.	.	.	.	.
=38	=38	=38	=38	=38	=38	=38	=38	=38	=38	=38
!	!	!	!	!	!	!	!LO:HP:a	!	!	!
8G/	4E- 4EE-\	8r	.	8BB-\	Fi-	Fi-	<	2r	.	.
8ryy	.	(>8e-L 8G/	.	8E-\	-li-	.	.	.	.	.
4r	4ryy	8f 8B-/	.	8F\	-u-	-li	.	.	.	.
.	.	8e-J 8G/)	.	8E-\	-ni-	.	[	.	.	.
!	!	!	!	!	!	!	!	!	!	!LO:HP:a
4BB- 4BBB-/	2ryy	8r	.	(8D\L	-ge-	Fi-	.	8f/	Fi-	<
.	.	(>8a-L 8f/	.	8F\J)	.	-li	.	8a-/	-li-	.
4r	.	8cc 8a-/	.	8A-\	-ni-	u-	.	8cc/	-u-	[
.	.	8b-J 8g/)	.	8G\	-te	-ni	.	8b-/	-ni-	.
*v	*v	*	*	*	*	*	*	*	*	*
=39	=39	=39	=39	=39	=39	=39	=39	=39	=39
*	*^	*	*	*	*	*	*	*	*
8r	(>4b- 4g/	4ryy	>	(4G\	ge-	.	.	(4b-\	-ge-	.
(8BB-\L	.	.	.	.	.	.	.	.	.	.
8C\	8an/L	8f#X\L	.	8F#X\)	.	.	.	8an/)	.	.
!	!	!	!	!	!	!	!LO:DY:a	!	!	!LO:DY:a
8D\J)	8a-X/J	8fn\J	]	8Fn\	-ni-	.	p	8a-X/	-ni-	p
4E-\	4g/)	4e-\	.	4E-\	-te	.	.	4g/	-te	.
8BB-\L	4r	4ryy	.	4r	.	.	.	4r	.	.
8GG\J	.	.	.	.	.	.	.	.	.	.
*	*v	*v	*	*	*	*	*	*	*	*
=40	=40	=40	=40	=40	=40	=40	=40	=40	=40
4EE-/	(4g 4e-/	p	4E-\	Je-	.	.	4g/	Je-	.
4r	8a-L 8f/	.	(8F\L	-su	.	.	(>8a-/L	su	.
.	8b-J 8g/	.	8G\J)	.	.	.	8b-/J)	.	.
4r	2cc 2a-\)	.	4A-\	Chri-	.	.	4cc\	Chri-	.
(8F\L	.	.	4A-\	-ste	.	.	4cc\	-ste	.
8E-\J)	.	.	.	.	.	.	.	.	.
!!LO:LB:g=original
=41	=41	=41	=41	=41	=41	=41	=41	=41	=41
*	*^	*	*	*	*	*	*	*	*
*xywh-8:42,5874,5393,1494	*xywh-8:42,5874,5393,1494	*xywh-8:42,5874,5393,1494	*	*xywh-8:51,5341,5367,777	*	*	*	*xywh-8:42,4668,5323,909	*	*
4D^^\	8r	2.ryy	.	4D\	Do-	.	.	4f/	Do-	.
.	(>8fL 8d/	.	<	.	.	.	.	.	.	.
4BB-\	8g 8e-/	.	.	8E-\	-mi-	.	.	8g/	-mi-	.
.	8a-J 8f/)	.	[	8F\	-ne	.	.	8a-/	-ne	.
4E-^^\	4b- 4g/	.	.	4G\	De-	.	.	4b-\	De-	.
4r	4b-/	(>8g\L	.	4E-\	-us	.	.	4g/	-us	.
.	.	8f\J	.	.	.	.	.	.	.	.
=42	=42	=42	=42	=42	=42	=42	=42	=42	=42	=42
4C 4CC\	4e-^/)	2.ryy	.	4C\	A-	.	.	4e-/	A-	.
!	!	!	!	!LO:TX:a:t=dim_:problem=dynamics with extention lines	!	!	!LO:HP:a:t=dim_	!LO:TX:a:t=dim_:problem=dynamics with extention lines	!	!LO:HP:a:t=dim
8DL 8DD\	(>8f/L	.	.	(8D\L	-gnus	.	>	(>8f/L	-gnus	>
8E-J 8EE-\	8g/J	.	.	8E-\J)	.	.	.	8g/J)	.	.
4F 4FF\	4a-/)	.	.	4F\	De-	.	.	4a-/	De-	.
4r	4a-/	(>8f\L	.	4F\	-i	.	.	4a-/	-i	.
.	.	8e-\J)	.	.	.	.	.	.	.	.
*	*v	*v	*	*	*	*	*	*	*	*
=43	=43	=43	=43	=43	=43	=43	=43	=43	=43
4BB-/	4d/	.	4BB-\	Fi-	.	.	4B-/	Fi-	.
8E-\L	8e-/L	.	8C\	-li-	.	.	8e-/	-li-	.
8BB-\J	8f/J	p	8D\	-us	.	.	8f/	-us	]
4EE-/	4g/	.	4E-\	Pa-	.	]	4g/	Pa-	.
4r	4r	.	4BB-^^\	-tris	.	.	4f/	-tris	.
=44	=44	=44	=44	=44	=44	=44	=44	=44	=44
!	!	!	!	!	!	!LO:DY:a	!	!	!
4E- 4EE-\	4r	p	4E-\	Qui	.	mf	1r	.	.
4r	4b- 4B-/	.	(8F\L	tol-	.	.	.	.	.
!	!	!	!	!	!	!LO:HP:a	!	!	!
.	.	.	8E-\J)	.	.	<	.	.	.
4BB- 4BBB-\	4r	.	8D\	-lis	.	.	.	.	.
.	.	.	8F\	pec-	.	.	.	.	.
4r	4b- 4B-/	.	8c\	-ca-	.	.	.	.	.
.	.	.	8B-\	-ta	.	[	.	.	.
*	*	*	*	*	*	*	*clefF4	*	*
=45	=45	=45	=45	=45	=45	=45	=45	=45	=45
4E- 4EE-\	4r	.	(4B-\	mun-	.	.	8r	.	.
.	.	.	.	.	.	.	8BB-\	qui	.
4r	(>4b- 4B-/	.	8An\L	.	.	.	(8C\L	tol-	.
!	!	!	!	!	!	!LO:DY:a	!	!	!
.	.	.	8A-X\J)	.	.	p	8D\J)	.	.
4B- 4E-\	4g 4e-/)	.	4G\	-di	.	.	4E-\	-lis	.
4r	4r	.	4r	.	.	.	[4B-\	qui	.
=46	=46	=46	=46	=46	=46	=46	=46	=46	=46
!	!	!	!	!	!	!LO:HP:a	!	!	!
4E- 4EE-\	4r	.	8BB-/	Mi-	.	<	1B-]	.	.
.	.	.	8E-\	-se-	.	.	.	.	.
4r	4b- 4B-/	.	8F\	-re-	.	.	.	.	.
.	.	.	8E-\	-re	.	.	.	.	.
4BB- 4BBB-/	4r	.	8D\L	no-	.	.	.	.	.
.	.	.	8F\	.	.	[	.	.	.
4r	4b- 4B-/	.	8c\J	.	.	.	.	.	.
.	.	.	8B-\	-bis	.	.	.	.	.
!!LO:PB:g=original
=47	=47	=47	=47	=47	=47	=47	=47	=47	=47
*xywh-9:-1,1393,5277,1332	*xywh-9:-1,1393,5277,1332	*	*xywh-9:8,870,5268,783	*	*	*	*xywh-9:7,0,5268,1053	*	*
*	*	*	*	*	*	*	*clefG2	*	*
8E-L 8EE-\	8r	.	(>4BB-^>/	no-	.	.	(4b-^\	tol-	.
(8BB-\	(>8b-L 8g/	<	.	.	.	.	.	.	.
8C\	8an 8f#X/	[	8C/L	.	.	.	8an\L	.	.
8D\J	8a-XJ 8fn/	>	8D/J)	.	.	.	8a-X\J)	.	.
4E-\)	8g 8e-/)	.	4E-\	-bis	.	.	4g\	-lis	.
.	(8bb-L 8gg\	]	.	.	.	.	.	.	.
4r	8aan 8ff#X\	p	4r	.	.	.	4r	.	.
.	8aa-XJ 8ffn\)	.	.	.	.	.	.	.	.
=48	=48	=48	=48	=48	=48	=48	=48	=48	=48
!	!	!	!	!	!	!LO:DY:a	!	!	!LO:DY:a
4E- 4EE-\	4gg 4ee-\	p	4E-\	qui	.	p	4g\	qui	p
4r	(>8e-/L	.	(8F\L	tol-	.	.	(8a-\L	tol-	.
.	8d/J	.	8G\J)	.	.	.	8b-\J)	.	.
4A- 4AA-\	4c/)	.	4A-\	lis	.	.	4cc\	-lis	.
4r	4cc 4f 4e-\	.	4D^^\	pec-	.	.	4f^^\	pec-	.
=49	=49	=49	=49	=49	=49	=49	=49	=49	=49
4BB- 4BBB-/	8r	.	(4D\	-ca-	.	.	(>4f/	-ca-	.
.	(>8fL 8d/	<	.	.	.	.	.	.	.
4r	8g 8e-/	.	8E-\)	.	.	.	8g/)	.	.
.	8a-J 8f/)	.	8F\	-ta	.	.	8a-/	-ta	.
4EE-/	4r	[	4G\	mun-	.	.	4b-\	mun-	.
4r	4b- 4g\	.	4G\	-di	.	.	4b-\	-di	.
=50	=50	=50	=50	=50	=50	=50	=50	=50	=50
4C 4CC/	8r	.	4C\	sus-	.	.	4e-/	Sus-	.
.	(>8ee-/L	>	.	.	.	.	.	.	.
4r	8bn/	.	(8D\L	-ci-	.	.	(>8f/L	-ci-	.
.	8cc/J)	.	8E-\J)	.	.	.	8g/J)	.	.
4FF/	4r	]	4F\	-pe	.	.	4a-/	-pe	.
4r	(8ddL 8a-\	.	4E-\	de-	.	.	4a-/	de-	.
.	8cc\J)	.	.	.	.	.	.	.	.
=51	=51	=51	=51	=51	=51	=51	=51	=51	=51
!	!	!	!	!	!	!	!	!	!LO:HP:a
(4D 4DD\	4r	.	4D\	-pre-	.	.	4a-/	-pre-	<
4C 4CC\	4a- 4f/	.	8D\	-ca-	.	.	8a-/	-ca-	.
.	.	.	8C\	-ti-	.	.	8a-/	-ti-	.
4BBn 4BBBn\	4r	.	4BBn\	-o-	.	.	4a-/	-o-	[
!	!	!	!	!	!	!	!	!	!LO:HP:a
4C 4CC\)	4g 4e-/	.	4C\	-nem	.	.	4g/	-nem	>
=52	=52	=52	=52	=52	=52	=52	=52	=52	=52
4.GG 4.GGG/	4.bn 4.f^^\	sf	(>4..GG^>/	no-	.	.	(4..bn^^\	no-	.
8AA- 8AAA-/	8cc 8e-\	.	.	.	.	.	.	.	]
.	.	.	16AA-/)	.	.	.	16cc\)	.	.
!	!	!	!	!	!	!	!	!	!LO:DY:a
2AA- 2AAA-/	2cc 2e-\	sf	2AA-/	-stram	.	.	2cc\	-stram	p
!!LO:LB:g=original
=53	=53	=53	=53	=53	=53	=53	=53	=53	=53
*xywh-9:-10,3666,5242,1253	*xywh-9:-10,3666,5242,1253	*	*xywh-9:-1,3170,5285,705	*	*	*	*xywh-9:8,2586,5277,731	*	*
2.AAn 2.AAAn/	4r	sf	4C\	qui	.	.	4e-/	qui	.
!	!	!	!	!	!	!LO:DY:a	!	!	!LO:DY:a
.	2.f#X 2.e- 2.c^/	.	8C\	se-	.	p	8e-/	se-	p
!	!	!	!	!	!	!LO:HP:a	!	!	!LO:HP:a
.	.	.	8En\	-des	.	<	8f#X/	-des	<
.	.	.	8F#X\	ad	.	.	8a-\	ad	.
.	.	.	8A-\	dex-	.	.	8cc\	dex-	.
4r	.	.	8c\	-te-	.	[	8ee-\	-te-	.
.	.	.	8c\	-ram	.	.	8ee-\	-ram	[
=54	=54	=54	=54	=54	=54	=54	=54	=54	=54
2.AAn 2.AAAn/	2r	.	4A-\	Pa-	.	.	4cc\	pa-	.
.	.	.	4F#X\	-tris	.	.	4a-\	-tris	.
.	2f#X 2e- 2c^/	.	2r	.	.	.	2r	.	.
4AA 4AAA/	.	.	.	.	.	.	.	.	.
=55	=55	=55	=55	=55	=55	=55	=55	=55	=55
4BB- 4BBB-/	2g 2e-/	p	4E-\	mi-	.	.	4g/	Mi-	.
4r	.	.	4E-\	-se-	.	.	4g/	-se-	.
4BB- 4BBB-/	2r	.	2r	.	.	.	2r	.	.
4BB- 4BBB-/	.	.	.	.	.	.	.	.	.
=56	=56	=56	=56	=56	=56	=56	=56	=56	=56
2r	2g-X 2e-/	.	4E-\	-re-	.	.	4g-X/	-re-	.
.	.	.	4E-\	-re	.	.	4g-/	-re	.
4BB- 4BBB-/	2r	.	2r	.	.	.	2r	.	.
4BB- 4BBB-/	.	.	.	.	.	.	.	.	.
=57	=57	=57	=57	=57	=57	=57	=57	=57	=57
2r	2.f 2.e-/	.	4E-\	no-	.	.	4f/	no-	.
.	.	.	4E-\	-bis	.	.	4f/	-bis	.
4BB- 4BBB-/	.	.	2r	.	.	.	2r	.	.
4BB- 4BBB-/	4f 4e-/	.	.	.	.	.	.	.	.
=58	=58	=58	=58	=58	=58	=58	=58	=58	=58
!	!	!	!	!	!	!LO:DY:a	!	!	!LO:DY:a
4BB- 4BBB-/	8fL 8d\	.	1BB-	no-	.	pp	1f	no-	pp
.	(8b-\	<	.	.	.	.	.	.	.
4r	8an\	.	.	.	.	.	.	.	.
.	8b-\J	.	.	.	.	.	.	.	.
2r	8bn\L	.	.	.	.	.	.	.	.
.	8cc\	.	.	.	.	.	.	.	.
.	8cc#X\)	.	.	.	.	.	.	.	.
.	8dd\J	[	.	.	.	.	.	.	.
=59	=59	=59	=59	=59	=59	=59	=59	=59	=59
*^	*^	*	*	*	*	*	*	*	*
!	!	!LO:TX:a:i:t=a tempo	!	!	!	!	!	!	!	!	!
8.E-L 8.EE-\	2ryy	4ee-/	8.e-\L	f	2E-\	-bis	.	.	2g/	-bis	.
16G\Jk	.	.	16g\Jk	.	.	.	.	.	.	.	.
4B-^^\	.	4b-^^\	4ryy	.	.	.	.	.	.	.	.
8.F#X/L	2E-\	8.an/L	2e-\	.	2r	.	.	.	2r	.	.
16G/K	.	16b-/K	.	.	.	.	.	.	.	.	.
8.A-/	.	8.cc/	.	.	.	.	.	.	.	.	.
16G/Jk	.	16b-/Jk	.	.	.	.	.	.	.	.	.
*v	*v	*	*	*	*	*	*	*	*	*	*
*	*v	*v	*	*	*	*	*	*	*	*
!!LO:LB:g=original
=60	=60	=60	=60	=60	=60	=60	=60	=60	=60
*xywh-9:16,6000,5172,1445	*xywh-9:16,6000,5172,1445	*	*xywh-9:25,5390,5189,757	*	*	*	*xywh-9:-1,4798,5224,740	*	*
4G 4E-\	4b- 4e-\	.	1r	.	.	.	1r	.	.
4E-^^\	4g^^\	.	.	.	.	.	.	.	.
4r	4r	.	.	.	.	.	.	.	.
8.E-^\L	8.e-^/L	.	.	.	.	.	.	.	.
16E-\Jk	16e-/Jk	.	.	.	.	.	.	.	.
=61	=61	=61	=61	=61	=61	=61	=61	=61	=61
4A- 4AA-^^\	4cc 4a- 4e-^^\	.	1r	.	.	.	1r	.	.
4E- 4EE-^^\	4b- 4g 4e-^^\	.	.	.	.	.	.	.	.
4r	4r	.	.	.	.	.	.	.	.
8.E-^\L	8.e-^/L	.	.	.	.	.	.	.	.
16E-\Jk	16e-/Jk	.	.	.	.	.	.	.	.
=62	=62	=62	=62	=62	=62	=62	=62	=62	=62
4A- 4AA-^^\	4cc 4a- 4e-^^\	.	1r	.	.	.	2r	.	.
4E- 4EE-^^\	4b- 4g 4e-^^\	.	.	.	.	.	.	.	.
4r	4r	.	.	.	.	.	4r	.	.
(8.E-\L	(>8.e-/L	p	.	.	.	.	8.e-/	quo-	.
16G\Jk)	16d/Jk)	.	.	.	.	.	16g/	-ni-	.
=63	=63	=63	=63	=63	=63	=63	=63	=63	=63
*	*^	*	*	*	*	*	*	*	*
4A-\	4c/	4ryy	.	4r	.	.	.	4a-\	-am	.
4F\	(4a-/	8f\L	.	(8F\L	tu	.	.	4a-\	tu	.
.	.	8e-\J	.	8E-\J)	.	.	.	.	.	.
!	!	!	!LO:HP:t=cres	!	!	!	!LO:HP:a:t=cres	!	!	!LO:HP:a:t=cres
4B- 4BB-\	4b-/)	4d\	<	4D\	so-	.	<	4f\	so-	<
4G\	[4b-/	8e-\L	.	4G\	-lus	.	.	4b-\	-lus	.
.	.	8d\J	.	.	.	.	.	.	.	.
=64	=64	=64	=64	=64	=64	=64	=64	=64	=64	=64
*^	*	*	*	*	*	*	*	*	*	*
4c\	4ryy	4b-/]	4e-\	.	(8G\L	San-	.	.	4g\	san-	.
.	.	.	.	.	8F\J)	.	.	.	.	.	.
8c/L	4C\	4cc 4en\	2ryy	>	4En\	-ctus	.	.	4cc\	-ctus	.
8B-/J	.	.	.	.	.	.	.	.	.	.	.
4A-/	4F\	4cc 4f\	.	]	4F\	tu	.	.	4a-\	tu	.
4A- 4AA-\	4ryy	4cc/	8f\L	<	8.F\	so-	.	.	8.cc\	so-	.
.	.	.	8f#X\J	.	.	.	.	.	.	.	.
.	.	.	.	[	16F#X\	-lus	.	.	16cc\	-lus	.
*v	*v	*	*	*	*	*	*	*	*	*	*
=65	=65	=65	=65	=65	=65	=65	=65	=65	=65	=65
*	*	*	*	*^	*	*	*	*	*	*
!	!	!	!	!	!	!	!	!LO:DY:a	!LO:TX:a:t=rall.	!	!LO:DY:a:rj
2G 2GG\	4cc/	2g 2d\	f	4.G\	2ryy	Do-	.	f	4cc\	Do-	f
!	!LO:TX:b:t=rall.	!	!	!	!	!	!	!	!	!	!
.	8bn/L	.	.	.	.	.	.	.	8bn\	.	.
.	8an/J	.	.	8G\	.	-mi-	.	.	8an\	-mi-	.
2GG 2GGG;\	2b/;	2d\	.	2G;/	2GG\	-nus	.	.	2b;\	-nus	.
*	*v	*v	*	*	*	*	*	*	*	*	*
*	*	*	*v	*v	*	*	*	*	*	*
!!LO:PB:g=original
=66	=66	=66	=66	=66	=66	=66	=66	=66	=66
*xywh-10:-12,1480,5194,1220	*xywh-10:-12,1480,5194,1220	*	*xywh-10:49,874,5099,718	*	*	*	*xywh-10:42,43,5107,986	*	*
(8GL 8GG\	(8bnL 8d/	.	8G\	Tu	.	.	8bn\	Tu	.
8A-J 8AA-\)	8ccJ 8c/)	.	8A-\	so-	.	.	8cc\	So-	.
4A- 4AA-^\	4cc 4c^/	.	4A-^\	-lus	.	.	4cc^\	-lus	.
4D 4DD\	4r	.	8D\	So-	.	.	8f/	So-	.
.	.	.	8D\	-lus	.	.	8f/	-lus	.
4r	4cc-X 4a- 4f/	p	(8E-\L	al-	.	.	(>8g/L	al-	.
.	.	.	8F\J)	.	.	.	8a-/J)	.	.
=67	=67	=67	=67	=67	=67	=67	=67	=67	=67
8.F#XL 8.FF#X\	8.anL 8.e-/	<	8.F#X\	-tis-	.	.	8.an/	-tis-	.
16GJk 16GG\	16b-Jk 16e-/	.	16G\	-si-	.	.	16b-/	-si-	.
4G 4GG\	4b- 4e-/	[	4G\	-mus	.	.	4b-/	-mus	.
4C 4CC\	4r	.	4C\	Je-	.	.	4e-/	Je-	.
4r	4b- 4e- 4c/	p	(8D\L	-su	.	.	(>8f/L	-su	.
.	.	.	8E-\J)	.	.	.	8g/J)	.	.
=68	=68	=68	=68	=68	=68	=68	=68	=68	=68
8.EnL 8.EEn\	8.gL 8.c/	<	(8.En\L	Chri-	.	.	(>8.g/L	Chri-	.
16FJk 16FF\	16a-XJk 16c/	.	16F\Jk)	.	.	.	16a-/Jk)	.	.
4F 4FF\	4a- 4c/	[	4F^\	-ste	.	.	4a-^>/	-ste	.
4BB- 4BBB-/	4r	.	4BB-\	Je-	.	.	4d/	Je-	.
4r	4f 4d 4B-/	p	(8C\L	-su	.	.	(>8e-/L	-su	.
.	.	.	8D\J)	.	.	.	8f/J)	.	.
=69	=69	=69	=69	=69	=69	=69	=69	=69	=69
4E- 4EE-\	8r	.	4E-\	Chri-	.	.	4e-/	Chri-	.
.	(8ee-L 8g\	>	.	.	.	.	.	.	.
4r	8cc 8a-\	.	4E-\	-ste	.	.	4e-/	-ste	.
.	8ddJ 8f\	.	.	.	.	.	.	.	.
2r	8b-L 8g\	.	2r	.	.	.	2r	.	.
.	8cc 8en\	.	.	.	.	.	.	.	.
.	8a- 8f\	.	.	.	.	.	.	.	.
.	8b-J 8d\)	]	.	.	.	.	.	.	.
=70	=70	=70	=70	=70	=70	=70	=70	=70	=70
*^	*	*	*	*	*	*	*	*	*
!	!	!	!	!	!	!	!LO:HP:a	!	!	!
(8BB-/L	4EE-\	4r	.	8BB-\L	Cum	.	<	2r	.	.
8E-/J)	.	.	.	8E-\J	.	.	.	.	.	.
4r	2.ryy	(>8fL 8B-/	.	8F\	san-	.	[	.	.	.
.	.	8e-XJ 8G/)	.	8E-\	.	.	.	.	.	.
!	!	!	!	!	!	!	!	!	!	!LO:HP:a
4BB- 4BBB-/	.	8r	<	4D\	-cto	.	.	8f/L	Cum	<
.	.	(8fL 8d\	.	.	.	.	.	8a-/J	.	.
4r	.	8cc 8a-\	[ >	4r	.	.	.	8cc\	sanc-	.
.	.	8b-J 8g\)	]]	.	.	.	.	8b-\	-to	[
!!LO:LB:g=original
=71	=71	=71	=71	=71	=71	=71	=71	=71	=71	=71
*xywh-10:23,3757,5125,1142	*xywh-10:23,3757,5125,1142	*xywh-10:23,3757,5125,1142	*	*xywh-10:23,3108,5125,796	*	*	*	*xywh-10:14,2510,5090,727	*	*
2ryy	8E-L 8EE-\	8r	.	(4G\	Spi-	.	.	(4b-\	Spi-	.
.	(8BB-\	(>8b-L 8g/	>	.	.	.	.	.	.	.
.	8C\	8an 8f#X/	.	8F#X\)	.	.	.	8an\)	.	.
.	8D\J	8a-XJ 8fn/)	]	8Fn\	-ri-	.	.	8a-X\	-ri-	.
8ryy	8E-\)	4g 4e-/	.	4E-\	-tu	.	.	4g\	-tu	.
8B-/L	(>8GL	.	.	.	.	.	.	.	.	.
8An/	8F#	4r	.	8r	.	.	.	8r	.	.
8A-X/J	8FnJ)	.	.	8E-\	in	.	.	8e-/	in	.
=72	=72	=72	=72	=72	=72	=72	=72	=72	=72	=72
!	!	!	!	!	!	!	!LO:DY:a:rj	!	!	!LO:DY:a
8G/	4E- 4EE-\	8r	.	2B-\	Glo-	.	f	(>8B-/L	Glo-	f
8ryy	.	(>8e-L 8G/	.	.	.	.	.	8e-/J)	.	.
!	!	!	!	!	!	!	!	!	!	!LO:HP:a
2.ryy	4r	8f 8B-/	.	.	.	.	.	8f/	-ri-	<
.	.	8e-J 8G/)	.	.	.	.	.	8e-/	-a	.
.	4BB- 4BBB-/	(>8dL 8B-/	<	8BB-\	-ri-	.	.	(>8d/L	De-	.
.	.	8a- 8f/	.	8D\	-a	.	.	8f/	.	.
.	4r	8cc 8a-/	[ >	8A-\	De-	.	.	8cc/J)	.	.
.	.	8b-J 8g/)	]]	8G\	-i	.	.	8b-\	-i	[
=73	=73	=73	=73	=73	=73	=73	=73	=73	=73	=73
8E-/L	4EE-	(>4b- 4g/	.	(4BB-\	Pa-	.	.	(4b-\	Pa-	.
(<8BB-/	.	.	.	.	.	.	.	.	.	.
8C/	2.ryy	8anL 8f#X/	.	8C\L	.	.	.	8an\L	.	.
!	!	!	!	!	!	!	!	!	!	!LO:DY:a
8D/J)	.	8a-XJ 8fn/)	.	8D\J)	.	.	.	8a-X\J)	.	p
!	!	!LO:TX:a:t=P:problem=mixed beam	!	!	!	!	!	!	!	!
4E- 4EE-\	.	8gL 8e-/	.	4E-\	-tris	.	.	4g\	-tris	.
.	.	8ee-\	.	.	.	.	.	.	.	.
4r	.	8b-\	.	4r	.	.	.	4r	.	.
.	.	8a-\J	.	.	.	.	.	.	.	.
*v	*v	*	*	*	*	*	*	*	*	*
=74	=74	=74	=74	=74	=74	=74	=74	=74	=74
!	!	!	!	!	!	!LO:DY:a:rj	!	!	!LO:DY:a:rj
4E- 4EE-\	4g 4e-/	f	4E-\	in	.	f	4g\	in	f
4r	8a-L 8f/	.	8F\	glo-	.	.	8a-\	Glo-	.
.	8b-J 8g/	.	8G\	-ri-	.	.	8b-\	-ri-	.
(4A-\	2cc 2a-^<\	.	4A-\	-a	.	.	4cc\	-a	.
8F\L	.	.	4r	.	.	.	4r	.	.
8E-\J)	.	.	.	.	.	.	.	.	.
=75	=75	=75	=75	=75	=75	=75	=75	=75	=75
4D\	4f 4d/	.	(4D\	De-	.	.	(4f/	De-	.
4BB-\	8gL 8e-/	.	8E-\L	.	.	.	8g/L	.	.
.	8a-J 8f/	.	8F\J)	.	.	.	8a-/J	.	.
4E-\	4b- 4g^/	.	4G\	-i	.	.	4b-\)	-i	.
8E-\L	8g/L	.	4r	.	.	.	4r	.	.
8D\J	8f/J	.	.	.	.	.	.	.	.
!!LO:LB:g=original
=76	=76	=76	=76	=76	=76	=76	=76	=76	=76
*xywh-10:6,6043,5107,1272	*xywh-10:6,6043,5107,1272	*	*xywh-10:49,5445,5107,666	*	*	*	*xywh-10:40,4857,5116,692	*	*
4C\	4e-/	.	(4C\	Pa-	.	.	(>4e-/	Pa-	.
!	!	!LO:HP:t=cres	!	!	!	!	!	!	!
8D\L	8f/L	<	8D\L	.	.	.	8f/L	.	.
8E-\J	8g/J	.	8E-\J	.	.	.	8g/J	.	.
4F\	4a-\	.	4F\)	-tris	.	.	4a-/)	-tris	.
8G\L	8b-\L	.	4r	.	.	.	4r	.	.
8A-\J	8cc\J	.	.	.	.	.	.	.	.
=77	=77	=77	=77	=77	=77	=77	=77	=77	=77
!	!	!	!	!	!	!LO:DY:a	!	!	!LO:DY:a
4B-^\	4ee- 4g^<\	.	4E-\	A-	.	p	4g/	a-	p
4BB-^\	4dd 4f^<\	.	4BB-\	-men	.	.	4f/	-men	.
2r	2r	.	2r	.	.	.	2r	.	.
=78	=78	=78	=78	=78	=78	=78	=78	=78	=78
4B- 4BB-^\	4ff 4a-^<\	.	4BB-/	A-	.	.	4a-/	a-	.
4B- 4E-^\	4ee- 4g^<\	.	4E-\	-men	.	.	4g/	-men	.
2r	2r	.	2r	.	.	.	2r	.	.
=79	=79	=79	=79	=79	=79	=79	=79	=79	=79
!	!	!	!	!	!	!LO:DY:a	!	!	!LO:DY:a
4B- 4BB-\	8ff 8dd 8b- 8a-\	f	(2BB-\	a-	.	f	1dd	a-	f
.	4ff 4dd 4b- 4a-\	.	.	.	.	.	.	.	.
4B- 4BB-\	.	.	.	.	.	.	.	.	.
.	4ff 4dd 4b- 4a-\	.	.	.	.	.	.	.	.
4B- 4BB-\	.	.	4B-\	.	.	.	.	.	.
.	4ff 4dd 4b- 4a-\	.	.	.	.	.	.	.	.
4B- 4BB-\	.	.	(8A-\L)	.	.	.	.	.	.
.	8ff 8dd 8b- 8a-\	.	8F\J)	.	.	.	.	.	.
=80	=80	=80	=80	=80	=80	=80	=80	=80	=80
4E- 4EE-\	4ee- 4b- 4g\	.	2E-\	-men	.	.	2ee-\	-men	.
4E- 4EE-\	4gg 4ee- 4b-\	.	.	.	.	.	.	.	.
4E- 4EE-\	4ee- 4b- 4g\	.	2r	.	.	.	2r	.	.
4E- 4EE-\	4b- 4g 4e-\	.	.	.	.	.	.	.	.
=81	=81	=81	=81	=81	=81	=81	=81	=81	=81
2E- 2EE-\	2g 2e- 2B-/	sf	1ryy	.	.	.	1ryy	.	.
4.E- 4.EE-\	4.e- 4.B- 4.G/	.	.	.	.	.	.	.	.
8E- 8EE-\	8e- 8B- 8G/	.	.	.	.	.	.	.	.
=82	=82	=82	=82	=82	=82	=82	=82	=82	=82
2E- 2EE-\	2e- 2B- 2G/	sf	1ryy	.	.	.	1ryy	.	.
2r	2r	.	.	.	.	.	.	.	.
==	==	==	==	==	==	==	==	==	==
*-	*-	*-	*-	*-	*-	*-	*-	*-	*-
!!!system-decoration: [s1,s2]{(s3,s4)}
!!!RDF**kern: > = above
!!!RDF**kern: < = below
!!!ENC: Berenika Jozajtis
!!!END: 2022-02-05
!!!ENC: Marta Lawrence
!!!END: 2022-02-15
!!!ENC-iiif: Jan Barakat
!!!END-iiif: 2022-08-19
!!!YEC: Copyright 2022 Narodowy Instytut Fryderyka Chopina (https://polishscores.org)
!!!YEM: License CC-BY-4.0 (https://creativecommons.org/licenses/by/4.0)
